;FLAVOR:Marlin
;TIME:1450
;Filament used: 0.34629m
;Layer height: 0.1
;MINX:-15.637
;MINY:-26.033
;MINZ:0.3
;MAXX:23.881
;MAXY:22.562
;MAXZ:11.3
;Generated with Cura_SteamEngine 4.8.0
M140 S60
M105
M190 S60
M104 S200
M105
M109 S200
M82 ;absolute extrusion mode
G28 ;Home
G1 Z15.0 F6000 ;Move the platform down 15mm
;Prime the extruder
G92 E0
G1 F200 E3
G92 E0
G92 E0
G92 E0
G1 F1500 E-6.5
;LAYER_COUNT:111
;LAYER:0
M107
;MESH:Screws Prosthetic Design 2 v1_Screws Prosthetic Design 2 v1_3.8mm screws_1_Body4_3.8mm screws.stl
G0 F3600 X-1.953 Y-.357 Z0.3
;TYPE:WALL-INNER
G1 F1500 E0
G1 F1800 X-1.632 Y-.248 E0.01691
G1 X-1.386 Y-0.087 E0.03158
G1 X-1.149 Y0.242 E0.05181
G1 X-1.043 Y0.564 E0.06872
G1 X-1.026 Y0.923 E0.08665
G1 X-1.077 Y1.156 E0.09855
G1 X-1.248 Y1.445 E0.11531
G1 X-1.494 Y1.684 E0.13242
G1 X-1.803 Y1.846 E0.14982
G1 X-2.123 Y1.909 E0.1661
G1 X-2.433 Y1.88 E0.18163
G1 X-2.723 Y1.76 E0.19729
G1 X-2.99 Y1.535 E0.21471
G1 X-3.195 Y1.277 E0.23115
G1 X-3.298 Y1.005 E0.24566
G1 X-3.314 Y0.722 E0.2598
G1 X-3.236 Y0.408 E0.27594
G1 X-3.09 Y0.091 E0.29335
G1 X-2.884 Y-.132 E0.3085
G1 X-2.602 Y-.296 E0.32477
G1 X-2.271 Y-.372 E0.34172
G1 X-1.953 Y-.357 E0.3576
G0 F3600 X-1.879 Y-.754
;TYPE:WALL-OUTER
G1 F1800 X-1.456 Y-.611 E0.37988
G1 X-1.106 Y-.381 E0.40077
G1 X-.788 Y0.059 E0.42786
G1 X-.646 Y0.494 E0.45068
G1 X-.623 Y0.956 E0.47376
G1 X-.7 Y1.304 E0.49154
G1 X-.93 Y1.694 E0.51413
G1 X-1.257 Y2.012 E0.53689
G1 X-1.667 Y2.226 E0.55996
G1 X-2.103 Y2.313 E0.58214
G1 X-2.531 Y2.272 E0.60359
G1 X-2.934 Y2.106 E0.62534
G1 X-3.278 Y1.816 E0.64779
G1 X-3.547 Y1.477 E0.66938
G1 X-3.693 Y1.091 E0.68997
G1 X-3.717 Y0.683 E0.71036
G1 X-3.615 Y0.276 E0.73129
G1 X-3.426 Y-.134 E0.75381
G1 X-3.137 Y-.447 E0.77507
G1 X-2.75 Y-.673 E0.79743
G1 X-2.306 Y-.775 E0.82015
G1 X-1.879 Y-.754 E0.84148
G0 F3600 X-1.69 Y-.69
G0 X-2.023 Y0.031
;TYPE:SKIN
G1 F1800 X-1.806 Y0.104 E0.85291
G1 X-1.659 Y0.2 E0.86166
G1 X-1.502 Y0.419 E0.87511
G1 X-1.431 Y0.637 E0.88655
G1 X-1.445 Y1.013 E0.90532
G1 X-1.557 Y1.202 E0.91628
G1 X-1.725 Y1.366 E0.92799
G1 X-1.931 Y1.474 E0.9396
G1 X-2.145 Y1.515 E0.95047
G1 X-2.338 Y1.498 E0.96013
G1 X-2.515 Y1.424 E0.9697
G1 X-2.851 Y1.083 E0.99359
G1 X-2.912 Y0.923 E1.00213
G1 X-2.921 Y0.755 E1.01052
G1 X-2.76 Y0.308 E1.03423
G1 X-2.638 Y0.177 E1.04316
G1 X-2.456 Y0.071 E1.05367
G1 X-2.237 Y0.02 E1.06488
G1 X-2.023 Y0.031 E1.07558
G0 F3600 X-2.049 Y0.212
G1 F1800 X-1.616 Y0.646 E1.10616
G0 F3600 X-1.719 Y1.108
G1 F1800 X-2.513 Y0.314 E1.16218
G0 F3600 X-2.705 Y0.688
G1 F1800 X-2.075 Y1.318 E1.20663
G1 X-2.005 Y1.388
G1 F1500 E-5.29337
;MESH:Screws Prosthetic Design 2 v1_Screws Prosthetic Design 2 v1_3.8mm screws_1_Body1_3.8mm screws.stl
G0 F3600 X-2.246 Y3.168
G0 X-2.137 Y8.543
G0 X-2.259 Y9.821
G0 X-1.95 Y9.831
;TYPE:WALL-INNER
G1 F1500 E1.20663
G1 F1800 X-1.659 Y9.951 E1.22234
G1 X-1.393 Y10.176 E1.23972
G1 X-1.188 Y10.434 E1.25616
G1 X-1.084 Y10.706 E1.27069
G1 X-1.069 Y10.987 E1.28472
G1 X-1.156 Y11.331 E1.30243
G1 X-1.292 Y11.62 E1.31836
G1 X-1.497 Y11.842 E1.33344
G1 X-1.78 Y12.007 E1.34978
G1 X-2.111 Y12.083 E1.36672
G1 X-2.429 Y12.068 E1.38261
G1 X-2.75 Y11.959 E1.39952
G1 X-2.994 Y11.799 E1.41408
G1 X-3.234 Y11.469 E1.43443
G1 X-3.34 Y11.141 E1.45163
G1 X-3.358 Y10.791 E1.46912
G1 X-3.306 Y10.555 E1.48117
G1 X-3.135 Y10.266 E1.49793
G1 X-2.889 Y10.027 E1.51504
G1 X-2.58 Y9.865 E1.53244
G1 X-2.26 Y9.802 E1.54872
G1 X-1.95 Y9.831 E1.56425
G0 F3600 X-1.851 Y9.439
;TYPE:WALL-OUTER
G1 F1800 X-1.449 Y9.605 E1.58595
G1 X-1.105 Y9.895 E1.60839
G1 X-.836 Y10.234 E1.62999
G1 X-.689 Y10.62 E1.65059
G1 X-.666 Y11.027 E1.67093
G1 X-.777 Y11.465 E1.69347
G1 X-.956 Y11.845 E1.71443
G1 X-1.243 Y12.157 E1.73558
G1 X-1.632 Y12.384 E1.75805
G1 X-2.076 Y12.486 E1.78078
G1 X-2.503 Y12.465 E1.80211
G1 X-2.927 Y12.322 E1.82443
G1 X-3.276 Y12.092 E1.84528
G1 X-3.595 Y11.652 E1.8724
G1 X-3.736 Y11.217 E1.89521
G1 X-3.76 Y10.755 E1.91829
G1 X-3.683 Y10.407 E1.93607
G1 X-3.453 Y10.017 E1.95866
G1 X-3.126 Y9.699 E1.98142
G1 X-2.716 Y9.485 E2.00449
G1 X-2.28 Y9.398 E2.02667
G1 X-1.851 Y9.439 E2.04817
G0 F3600 X-1.666 Y9.515
G0 X-2.048 Y10.213
;TYPE:SKIN
G1 F1800 X-1.862 Y10.29 E2.05822
G1 X-1.53 Y10.63 E2.08192
G1 X-1.471 Y10.785 E2.0902
G1 X-1.462 Y10.951 E2.09849
G1 X-1.619 Y11.4 E2.12222
G1 X-1.743 Y11.533 E2.13129
G1 X-1.926 Y11.64 E2.14187
G1 X-2.145 Y11.691 E2.15309
G1 X-2.359 Y11.68 E2.16378
G1 X-2.719 Y11.514 E2.18356
G1 X-2.883 Y11.288 E2.19749
G1 X-2.952 Y11.072 E2.2088
G1 X-2.938 Y10.699 E2.22742
G1 X-2.826 Y10.509 E2.23843
G1 X-2.658 Y10.345 E2.25014
G1 X-2.452 Y10.237 E2.26174
G1 X-2.238 Y10.196 E2.27261
G1 X-2.048 Y10.213 E2.28213
G0 F3600 X-2.03 Y10.414
G1 F1800 X-1.664 Y10.78 E2.30796
G0 F3600 X-1.757 Y11.252
G1 F1800 X-2.53 Y10.48 E2.36246
G0 F3600 X-2.762 Y10.813
G1 F1800 X-2.085 Y11.491 E2.41026
G1 X-2.015 Y11.561
G1 F1500 E-4.08974
;MESH:Screws Prosthetic Design 2 v1_Screws Prosthetic Design 2 v1_3.8mm screws_1_Body3_3.8mm screws.stl
G0 F3600 X-2.172 Y13.348
G0 X-2.188 Y18.372
G0 X-2.202 Y19.657
G0 X-2.14 Y19.638
;TYPE:WALL-INNER
G1 F1500 E2.41026
G1 F1800 X-1.827 Y19.733 E2.42658
G1 X-1.471 Y19.971 E2.44794
G1 X-1.303 Y20.23 E2.46335
G1 X-1.193 Y20.564 E2.48089
G1 X-1.176 Y20.923 E2.49882
G1 X-1.227 Y21.156 E2.51072
G1 X-1.399 Y21.447 E2.52758
G1 X-1.647 Y21.687 E2.5448
G1 X-1.924 Y21.838 E2.56054
G1 X-2.259 Y21.909 E2.57763
G1 X-2.549 Y21.888 E2.59213
G1 X-2.848 Y21.775 E2.60808
G1 X-3.088 Y21.589 E2.62323
G1 X-3.325 Y21.31 E2.64149
G1 X-3.442 Y21.03 E2.65663
G1 X-3.467 Y20.754 E2.67046
G1 X-3.4 Y20.445 E2.68623
G1 X-3.257 Y20.118 E2.70404
G1 X-3.06 Y19.89 E2.71907
G1 X-2.779 Y19.716 E2.73556
G1 X-2.482 Y19.634 E2.75093
G1 X-2.14 Y19.638 E2.76799
G0 F3600 X-2.079 Y19.239
;TYPE:WALL-OUTER
G1 F1800 X-1.654 Y19.367 E2.79014
G1 X-1.181 Y19.684 E2.81855
G1 X-.939 Y20.056 E2.84069
G1 X-.796 Y20.494 E2.86367
G1 X-.773 Y20.956 E2.88675
G1 X-.85 Y21.304 E2.90453
G1 X-1.08 Y21.694 E2.92712
G1 X-1.408 Y22.012 E2.94991
G1 X-1.785 Y22.217 E2.97132
G1 X-2.233 Y22.312 E2.99417
G1 X-2.636 Y22.283 E3.01433
G1 X-3.045 Y22.128 E3.03615
G1 X-3.367 Y21.879 E3.05646
G1 X-3.67 Y21.523 E3.07978
G1 X-3.835 Y21.128 E3.10114
G1 X-3.87 Y20.728 E3.12117
G1 X-3.783 Y20.322 E3.14189
G1 X-3.599 Y19.902 E3.16476
G1 X-3.322 Y19.582 E3.18588
G1 X-2.941 Y19.345 E3.20826
G1 X-2.535 Y19.233 E3.22928
G1 X-2.079 Y19.239 E3.25203
G0 F3600 X-1.888 Y19.296
G0 X-2.199 Y20.028
;TYPE:SKIN
G1 F1800 X-1.995 Y20.089 E3.26265
G1 X-1.756 Y20.248 E3.27697
G1 X-1.658 Y20.4 E3.28599
G1 X-1.581 Y20.637 E3.29843
G1 X-1.594 Y21.01 E3.31705
G1 X-1.708 Y21.203 E3.32823
G1 X-1.88 Y21.368 E3.34012
G1 X-2.062 Y21.468 E3.35048
G1 X-2.291 Y21.517 E3.36216
G1 X-2.46 Y21.504 E3.37062
G1 X-2.655 Y21.431 E3.38101
G1 X-2.988 Y21.105 E3.40426
G1 X-3.06 Y20.934 E3.41352
G1 X-3.073 Y20.778 E3.42132
G1 X-2.924 Y20.329 E3.44493
G1 X-2.805 Y20.191 E3.45402
G1 X-2.621 Y20.077 E3.46482
G1 X-2.431 Y20.024 E3.47466
G1 X-2.199 Y20.028 E3.48623
G0 F3600 X-1.768 Y20.858
G1 F1800 X-2.419 Y20.208 E3.53213
G0 F3600 X-2.766 Y20.426
G1 F1800 X-1.979 Y21.213 E3.58766
G0 F3600 X-2.44 Y21.318
G1 F1800 X-2.884 Y20.873 E3.61902
G1 F1500 E-2.88098
;MESH:Screws Prosthetic Design 2 v1_Screws Prosthetic Design 2 v1_3.8mm screws_1_Body6_3.8mm screws.stl
G0 F3600 X-4.639 Y20.183
G0 X-11.296 Y18.321
G0 X-12.548 Y18.603
G0 X-13.249 Y17.985
G0 X-13.213 Y17.892
;TYPE:WALL-INNER
G1 F1500 E3.61902
G1 F1800 X-12.922 Y18.064 E3.63588
G1 X-12.684 Y18.31 E3.65296
G1 X-12.53 Y18.596 E3.66917
G1 X-12.462 Y18.898 E3.68461
G1 X-12.483 Y19.22 E3.70071
G1 X-12.581 Y19.488 E3.71495
G1 X-12.76 Y19.734 E3.73012
G1 X-13.03 Y19.972 E3.74808
G1 X-13.299 Y20.096 E3.76286
G1 X-13.578 Y20.133 E3.7769
G1 X-13.892 Y20.078 E3.7928
G1 X-14.226 Y19.938 E3.81087
G1 X-14.457 Y19.75 E3.82573
G1 X-14.638 Y19.478 E3.84203
G1 X-14.734 Y19.154 E3.85889
G1 X-14.738 Y18.842 E3.87446
G1 X-14.652 Y18.524 E3.89089
G1 X-14.397 Y18.136 E3.91406
G1 X-14.138 Y17.967 E3.92948
G1 X-13.805 Y17.858 E3.94696
G1 X-13.446 Y17.841 E3.9649
G1 X-13.213 Y17.892 E3.9768
G0 F3600 X-13.065 Y17.515
;TYPE:WALL-OUTER
G1 F1800 X-12.675 Y17.745 E3.99938
G1 X-12.357 Y18.073 E4.02218
G1 X-12.152 Y18.453 E4.04372
G1 X-12.059 Y18.868 E4.06494
G1 X-12.088 Y19.306 E4.08683
G1 X-12.224 Y19.677 E4.10655
G1 X-12.461 Y20.003 E4.12666
G1 X-12.811 Y20.311 E4.14992
G1 X-13.185 Y20.484 E4.17047
G1 X-13.589 Y20.538 E4.19081
G1 X-14.004 Y20.464 E4.21184
G1 X-14.432 Y20.285 E4.23499
G1 X-14.758 Y20.02 E4.25595
G1 X-15.005 Y19.649 E4.27818
G1 X-15.133 Y19.217 E4.30066
G1 X-15.139 Y18.795 E4.32172
G1 X-15.021 Y18.357 E4.34435
G1 X-14.685 Y17.846 E4.37486
G1 X-14.314 Y17.604 E4.39696
G1 X-13.875 Y17.461 E4.41999
G1 X-13.413 Y17.438 E4.44307
G1 X-13.065 Y17.515 E4.46085
G0 F3600 X-12.893 Y17.616
G0 X-13.166 Y18.373
;TYPE:SKIN
G1 F1800 X-13.001 Y18.545 E4.47274
G1 X-12.898 Y18.734 E4.48348
G1 X-12.856 Y18.925 E4.49324
G1 X-12.869 Y19.143 E4.50413
G1 X-12.927 Y19.299 E4.51244
G1 X-13.054 Y19.474 E4.52322
G1 X-13.242 Y19.639 E4.5357
G1 X-13.568 Y19.739 E4.55272
G1 X-13.785 Y19.7 E4.56372
G1 X-14.022 Y19.602 E4.57651
G1 X-14.163 Y19.487 E4.58559
G1 X-14.281 Y19.31 E4.5962
G1 X-14.344 Y19.095 E4.60738
G1 X-14.348 Y18.89 E4.61761
G1 X-14.292 Y18.687 E4.62811
G1 X-14.115 Y18.417 E4.64422
G1 X-13.97 Y18.323 E4.65284
G1 X-13.735 Y18.246 E4.66518
G1 X-13.478 Y18.233 E4.67802
G1 X-13.166 Y18.373 E4.69508
G0 F3600 X-13.79 Y18.453
G1 F1800 X-13.07 Y19.173 E4.74588
G0 F3600 X-13.332 Y19.477
G1 F1800 X-14.095 Y18.714 E4.79971
G0 F3600 X-14.064 Y19.311
G1 F1800 X-13.942 Y19.433 E4.80832
G1 F1500 E-1.69168
;MESH:Screws Prosthetic Design 2 v1_Screws Prosthetic Design 2 v1_3.8mm screws_1_Body5_3.8mm screws.stl
G0 F3600 X-13.447 Y17.86
G0 X-13.509 Y16.577
G0 X-13.436 Y12.712
G0 X-13.345 Y11.431
G0 X-12.989 Y9.351
G0 X-12.949 Y9.26
;TYPE:WALL-INNER
G1 F1500 E4.80832
G1 F1800 X-12.561 Y9.515 E4.83148
G1 X-12.393 Y9.772 E4.8468
G1 X-12.282 Y10.113 E4.86469
G1 X-12.264 Y10.463 E4.88218
G1 X-12.316 Y10.695 E4.89404
G1 X-12.49 Y10.991 E4.91117
G1 X-12.731 Y11.226 E4.92796
G1 X-13.042 Y11.388 E4.94546
G1 X-13.344 Y11.45 E4.96084
G1 X-13.645 Y11.429 E4.97589
G1 X-13.912 Y11.331 E4.99008
G1 X-14.152 Y11.156 E5.0049
G1 X-14.399 Y10.877 E5.02349
G1 X-14.521 Y10.613 E5.038
G1 X-14.558 Y10.333 E5.05209
G1 X-14.503 Y10.02 E5.06795
G1 X-14.363 Y9.686 E5.08601
G1 X-14.174 Y9.454 E5.10094
G1 X-13.902 Y9.273 E5.11724
G1 X-13.583 Y9.178 E5.13385
G1 X-13.269 Y9.174 E5.14952
G1 X-12.949 Y9.26 E5.16605
G0 F3600 X-12.782 Y8.891
;TYPE:WALL-OUTER
G1 F1800 X-12.271 Y9.227 E5.19656
G1 X-12.028 Y9.598 E5.21868
G1 X-11.886 Y10.037 E5.2417
G1 X-11.862 Y10.498 E5.26473
G1 X-11.94 Y10.845 E5.28248
G1 X-12.171 Y11.238 E5.30522
G1 X-12.496 Y11.555 E5.32787
G1 X-12.906 Y11.769 E5.35095
G1 X-13.317 Y11.853 E5.37187
G1 X-13.73 Y11.824 E5.39253
G1 X-14.102 Y11.688 E5.41229
G1 X-14.424 Y11.453 E5.43218
G1 X-14.737 Y11.099 E5.45575
G1 X-14.909 Y10.727 E5.4762
G1 X-14.963 Y10.322 E5.49658
G1 X-14.889 Y9.908 E5.51757
G1 X-14.71 Y9.48 E5.54071
G1 X-14.445 Y9.154 E5.56167
G1 X-14.073 Y8.907 E5.58395
G1 X-13.642 Y8.779 E5.60638
G1 X-13.22 Y8.773 E5.62744
G1 X-12.782 Y8.891 E5.65007
G0 F3600 X-12.615 Y9
G0 X-13.112 Y9.62
;TYPE:SKIN
G1 F1800 X-12.841 Y9.797 E5.66621
G1 X-12.749 Y9.939 E5.67466
G1 X-12.67 Y10.183 E5.68745
G1 X-12.683 Y10.55 E5.70577
G1 X-12.798 Y10.746 E5.71711
G1 X-12.964 Y10.908 E5.72868
G1 X-13.173 Y11.017 E5.74044
G1 X-13.367 Y11.056 E5.75031
G1 X-13.566 Y11.043 E5.76026
G1 X-13.887 Y10.867 E5.77853
G1 X-14.069 Y10.661 E5.79224
G1 X-14.164 Y10.344 E5.80875
G1 X-14.125 Y10.127 E5.81975
G1 X-14.027 Y9.89 E5.83255
G1 X-13.911 Y9.748 E5.84169
G1 X-13.734 Y9.63 E5.85231
G1 X-13.524 Y9.568 E5.86323
G1 X-13.317 Y9.564 E5.87356
G1 X-13.112 Y9.62 E5.88416
G0 F3600 X-12.854 Y10.338
G1 F1800 X-13.446 Y9.746 E5.92593
G0 F3600 X-13.827 Y9.931
G1 F1800 X-13.034 Y10.724 E5.98188
G0 F3600 X-13.454 Y10.869
G1 F1800 X-13.973 Y10.35 E6.0185
G1 F1500 E-0.4815
;MESH:Screws Prosthetic Design 2 v1_Screws Prosthetic Design 2 v1_3.8mm screws_1_Body2_3.8mm screws.stl
G0 F3600 X-13.58 Y9.197
G0 X-13.596 Y7.913
G0 X-13.595 Y2.859
G0 X-13.505 Y1.578
G0 X-13.403 Y-.575
G0 X-13.388 Y-.673
;TYPE:WALL-INNER
G1 F1500 E6.0185
G1 F1800 X-13.074 Y-.578 E6.03487
G1 X-12.718 Y-.339 E6.05626
G1 X-12.55 Y-0.081 E6.07162
G1 X-12.44 Y0.256 E6.0893
G1 X-12.422 Y0.609 E6.10694
G1 X-12.475 Y0.843 E6.11891
G1 X-12.647 Y1.136 E6.13586
G1 X-12.895 Y1.376 E6.15308
G1 X-13.172 Y1.527 E6.16882
G1 X-13.504 Y1.597 E6.18574
G1 X-13.8 Y1.576 E6.20055
G1 X-14.096 Y1.464 E6.21634
G1 X-14.338 Y1.276 E6.23163
G1 X-14.575 Y0.998 E6.24985
G1 X-14.685 Y0.739 E6.26389
G1 X-14.715 Y0.446 E6.27859
G1 X-14.65 Y0.138 E6.29429
G1 X-14.505 Y-.19 E6.31218
G1 X-14.304 Y-.423 E6.32753
G1 X-14.027 Y-.595 E6.3438
G1 X-13.73 Y-.677 E6.35917
G1 X-13.388 Y-.673 E6.37624
G0 F3600 X-13.326 Y-1.072
;TYPE:WALL-OUTER
G1 F1800 X-12.902 Y-.944 E6.39833
G1 X-12.427 Y-.625 E6.42688
G1 X-12.187 Y-.258 E6.44876
G1 X-12.044 Y0.183 E6.47189
G1 X-12.02 Y0.644 E6.49492
G1 X-12.099 Y0.993 E6.51277
G1 X-12.328 Y1.383 E6.53533
G1 X-12.656 Y1.701 E6.55812
G1 X-13.033 Y1.906 E6.57953
G1 X-13.477 Y2 E6.60218
G1 X-13.887 Y1.971 E6.62268
G1 X-14.293 Y1.817 E6.64434
G1 X-14.614 Y1.568 E6.66461
G1 X-14.919 Y1.21 E6.68808
G1 X-15.077 Y0.838 E6.70824
G1 X-15.119 Y0.426 E6.7289
G1 X-15.032 Y0.014 E6.74991
G1 X-14.847 Y-.406 E6.77281
G1 X-14.567 Y-.731 E6.79421
G1 X-14.189 Y-.966 E6.81641
G1 X-13.783 Y-1.078 E6.83743
G1 X-13.326 Y-1.072 E6.86023
G0 F3600 X-13.135 Y-1.015
G0 X-13.447 Y-.283
;TYPE:SKIN
G1 F1800 X-13.244 Y-.222 E6.8708
G1 X-13.002 Y-0.06 E6.88533
G1 X-12.905 Y0.088 E6.89416
G1 X-12.828 Y0.326 E6.90664
G1 X-12.841 Y0.697 E6.92516
G1 X-12.956 Y0.891 E6.93641
G1 X-13.128 Y1.057 E6.94834
G1 X-13.31 Y1.157 E6.9587
G1 X-13.532 Y1.204 E6.97002
G1 X-13.715 Y1.191 E6.97917
G1 X-13.904 Y1.119 E6.98926
G1 X-14.24 Y0.79 E7.01272
G1 X-14.321 Y0.468 E7.02929
G1 X-14.172 Y0.02 E7.05284
G1 X-14.048 Y-.123 E7.06229
G1 X-13.869 Y-.234 E7.07279
G1 X-13.68 Y-.287 E7.08259
G1 X-13.447 Y-.283 E7.09421
G0 F3600 X-13.015 Y0.561
G1 F1800 X-13.676 Y-0.099 E7.14082
G0 F3600 X-14.016 Y0.125
G1 F1800 X-13.233 Y0.908 E7.19606
G0 F3600 X-13.707 Y1
G1 F1800 X-14.099 Y0.608 E7.22372
G1 F1500 E0.72372
;MESH:Screws Prosthetic Design 2 v1_Screws Prosthetic Design 2 v1_6.3 mm screws_1_Body1_6.3 mm screws.stl
G0 F3600 X-13.391 Y-.654
G0 X-13.377 Y-1.939
G0 X-13.2 Y-10.263
G0 X-13.314 Y-11.541
G0 X-12.941 Y-13.668
G0 X-12.905 Y-13.761
;TYPE:WALL-INNER
G1 F1500 E7.22372
G1 F1800 X-12.623 Y-13.598 E7.23997
G1 X-12.386 Y-13.358 E7.2568
G1 X-12.221 Y-13.055 E7.27401
G1 X-12.152 Y-12.733 E7.29044
G1 X-12.18 Y-12.41 E7.30661
G1 X-12.294 Y-12.126 E7.32188
G1 X-12.496 Y-11.876 E7.33792
G1 X-12.764 Y-11.654 E7.35528
G1 X-13.026 Y-11.547 E7.3694
G1 X-13.315 Y-11.522 E7.38387
G1 X-13.602 Y-11.582 E7.3985
G1 X-13.944 Y-11.732 E7.41713
G1 X-14.168 Y-11.924 E7.43185
G1 X-14.34 Y-12.196 E7.4479
G1 X-14.427 Y-12.5 E7.46368
G1 X-14.428 Y-12.822 E7.47974
G1 X-14.343 Y-13.126 E7.49549
G1 X-14.085 Y-13.521 E7.51903
G1 X-13.847 Y-13.678 E7.53325
G1 X-13.496 Y-13.794 E7.5517
G1 X-13.137 Y-13.813 E7.56963
G1 X-12.905 Y-13.761 E7.58149
G0 F3600 X-12.758 Y-14.138
;TYPE:WALL-OUTER
G1 F1800 X-12.374 Y-13.916 E7.60362
G1 X-12.063 Y-13.6 E7.62574
G1 X-11.842 Y-13.194 E7.64881
G1 X-11.748 Y-12.757 E7.67111
G1 X-11.786 Y-12.318 E7.69309
G1 X-11.946 Y-11.92 E7.71449
G1 X-12.209 Y-11.595 E7.73535
G1 X-12.555 Y-11.308 E7.75778
G1 X-12.934 Y-11.153 E7.7782
G1 X-13.338 Y-11.118 E7.79844
G1 X-13.723 Y-11.198 E7.81805
G1 X-14.159 Y-11.39 E7.84182
G1 X-14.473 Y-11.658 E7.86242
G1 X-14.71 Y-12.034 E7.88459
G1 X-14.827 Y-12.442 E7.90577
G1 X-14.828 Y-12.875 E7.92737
G1 X-14.711 Y-13.295 E7.94912
G1 X-14.375 Y-13.809 E7.97976
G1 X-14.023 Y-14.041 E8.00079
G1 X-13.572 Y-14.19 E8.02449
G1 X-13.103 Y-14.215 E8.04792
G1 X-12.758 Y-14.138 E8.06555
G0 F3600 X-12.585 Y-14.038
G0 X-12.864 Y-13.288
;TYPE:SKIN
G1 F1800 X-12.704 Y-13.126 E8.07691
G1 X-12.591 Y-12.918 E8.08872
G1 X-12.546 Y-12.704 E8.09963
G1 X-12.563 Y-12.505 E8.1096
G1 X-12.634 Y-12.327 E8.11916
G1 X-12.966 Y-11.993 E8.14265
